src/svgs/hospital.svg

<svg xmlns="http://www.w3.org/2000/svg" viewBox="0 0 24 24" width="512" height="512" aria-labelledby="ffhospital-desc ffhospital-title"><title id="ffhospital-title">Hospital Icon</title><desc id="ffhospital-desc">A picture depicting a house with the capital letter H in the middle.</desc><path d="M12 2L2 8h2v14h16V8h2zm4 16h-2v-3h-4v3H8v-8h2v3h4v-3h2z"/></svg>

<svg xmlns="http://www.w3.org/2000/svg" viewBox="0 0 24 24"><path d="M12,2,2,8H4V22H20V8h2Zm4,16H14V15H10v3H8V10h2v3h4V10h2Z"/></svg>
